!!!COM: Schubert, Franz
!!!CNT: Deutscher
!!!TXO: Deutsch
!!!OTL: "Der Leiermann" (Spaetere Fassung)
!!!OPR: Winterreise
!!!OPS: Opus 89
!!!ONM: No. 24b
!!!ODT: 1828/
!!NB: Vocal melody only encoded. (Originally in a minor) Difference is in rhythm of second verse.
**kern	**silbe
*clefG2	*
*k[f#c#]	*
*M3/4	*
=9	=9
{8b	{Dru2-
8f#	-ben
8b	hin-
8cc#	-term
8dd	Dor-
8b	-fe
=10	=10
8f#	steht
8b	ein
8a#	Lei-
8cc#	-er-
4f#}	-mann,}
=13	=13
{8b	{und
8f#	mit
8b	star-
8cc#	-ren
8dd	Fin-
8b	-gern
=14	=14
8f#	dreht
8b	er,
8a#	was
8cc#	er
4f#}	kann.}
=17	=17
{8b	{Baar-
8ff#	-fuss
8ee	auf
8dd	dem
8cc#	Ei-
8f#	-se
=18	=18
8.b	wank-
16dd	-ter
8cc#	hin
8f#	und
4cc#}	her,}
=21	=21
{8b	{und
8ff#	sein
8ee	klein-
8dd	-ner
8cc#	Tel-
8f#	-ler
=22	=22
8.b	bleibt
16dd	ihm
8cc#	im-
8f#	-mer
4cc#}	leer,}
=25	=25
{8b	{und
8cc#	sein
8dd	klei-
8ee	-ner
8.ff#	Tel-
16ee	-ler
=26	=26
8cc#	bleibt
8b	ihm
8a	im-
8e	-mer
4a}	leer.}
=31	=31
{8b	{Kei-
8f#	-ner
8b	mag
8cc#	ihn
8dd	ho2r-
8b	-en,
=32	=32
8f#	kei-
8b	-ner
8a#	sieht
8cc#	ihn
4f#}	an,}
=35	=35
{8b	{und
8f#	die
8b	Hun-
8cc#	-de
8dd	knur-
8b	-ren
=36	=36
8f#	um
8b	den
8a#	al-
8cc#	-ten
4f#}	Mann.}
=39	=39
{8b	{und
8ff#	er
8ee	la2sst
8dd	es
8cc#	ge-
8f#	-hen
=40	=40
8.b	al-
16dd	-les
8cc#	wie
8f#	es
4cc#}	will,}
=43	=43
{8b	{dreht,
8ff#	und
8ee	sei-
8dd	-ne
8cc#	Lei-
8f#	-er
=44	=44
8b	steht
8dd	ihm
8cc#	nim-
8f#	-mer
4cc#}	still,}
=47	=47
{8b	{dreht,
8cc#	und
8dd	sei-
8ee	-ne
8.ff#	Lei-
16ee	-er
=48	=48
8dd	steht
8cc#	ihm
8b	nim-
8f#	-mer
4b}	still.}
=53	=53
{8.f#	{Wun-
16f#	-der-
8f#	-lich-
8f#	-er
8b	Al-
8f#	-ter,
=54	=54
4r	.
8f#	soll
8f#	ich
8b	mit
16dd	dir
16cc#	|
=55	=55
2b}	gehn?}
4r	.
=56	=56
{8.f#	{Willst
16ff#	zu
8ee	mei-
8gg	-nen
8ff#	Lie-
8f#	-dern
=57	=57
8.f#	dei-
16ff#	-ne
8ee	Lei-
8gg	-er
[4ff#	drehn?
=58	=58
2ff#]}	|}
4r	.
*-	*-
